X:1

T:White Heather [1]

M:C

L:1/8

R:Strathspey

S:Kerr – Merry Melodies, vol. 4, No. 151  (c. 1880’s)

Z:AK/Fiddler’s Companion

K:F

f|c<A A>F B>cd>F|c<A A>F G3d|c<A A>F B>df>d|(3cdc (3BAG F3:|

|:c|f<f a<f b>ag>c|f<f a>f d3e|1f<f a>f b>ag>f|(3efg (3cde f3:|2 f<f a>f d<d b>g|(3efg (3cde f3||

 

WHITE HEATHER [2]. Scottish, Jig. The tune was a signature tune for the radio show of Scottish piano accordion player Jimmy Shands, and much beloved of Scottish Country Dancers.

 

WHITE HILLS OF DEAR IRELAND, THE (Ban-chnoic Éireann Ogh). AKA and see "Uailleacan Dhuv Ó!" "Song of Sorrow." Irish, Air (4/4 time, "lively"). G Mixolydian. Standard tuning. AAB. The song (which also translates as "The Fair Hills of Ireland") is included in Joyce’s Irish Music and Song. It was written by Donncha Rua Mac Con Mara, born in Cratloe, County Clare, in 1715.  Mac Con Mara was groomed for the priesthood in Rome until he was expelled for his "wildness." He returned to Ireland in 1740 to take a schoolmaster's position in Waterford, then journeyed to Newfoundland in 1745 where he stayed until 1756. It is likely he wrote the still popular "Ban Chnoic Éireann Ó" while in the new world.

***

Bíonn barr bog slím ar chaoin-chnuic Éireann

Bán-chnuic Éireann Ó!

'S is fearr ná'n tír seo díogha gach sléibh' ann,

Bán-chnuic Éireann Ó!

Tá grá im chroí im inntinn fein,

Bán-chnuic Éireann Ó!
***

The soil is rich and soft, the air is mild and bland

O the fair hills of Éire Ó!

Her barest rock is greener to me than this rude land

O the fair hills of Éire ÓO! in heart and soul, I shall ever love,

The fair hills of Éire Ó   (translated by James Clarence Mangan)

***

O'Neill (Music of Ireland: 1850 Melodies), 1903/1979; No. 370, pg. 64. GTD Heritage Trad. HCD 008, Tommy Peoples - "Traditional Irish Music Played on the Fiddle" (appears as "Ban Chnoic Éirinn Ó").

